X:1
T:Title
%%score { ( 1 4 ) | ( 2 3 ) }
L:1/8
Q:1/4=100
M:4/4
K:G
V:1 treble nm="Grand Piano"
V:4 treble 
V:2 bass 
V:3 bass 
V:1
 [DB]3 A [B,G]D[CE]c | [DB]4 [B,G]4 | [EG]3 F [EG]A[EG]E | [B,D]6 z2 | [DF]3 =F [D^F]G[FA]B | %5
w: H.~A.~Henry * * * * *|||||
 [Ac]4 [FA]4 | [GA]3 B AEFG | [CA]6[K:bass] B,,A,, |[Q:1/4=72] B3 c BDBc | B3 [^C_B] [=CA]4 | %10
w: |||||
 [Fd]3 [Ec] BAEF | D6 z2 | d3 B dBd[D=FG] | [CEG]4 [Ec]4 | B3 c BAGF | [B,G]6 z2 |] %16
w: ||||||
V:2
 G,,2 z C z B, z E | G,,2 B,,D, G,2 G,,2 | C,2 z ^D z[K:treble] F z C | G,,G,,B,,D, G,D,B,,G,, | %4
 D,,2 z D z E z G | D,,E,,F,,A,, D,2 D,,2 | E,,2 z[K:treble] G [A,G][K:bass][G,^C][F,C][D,C] | %7
 D,E,F,E, D,C, z2 | [G,D]3 [G,E] [G,D][G,B,][G,D][G,E] | [G,D]3 E, F,4 | %10
 [D,A,]3 [D,F,] [D,G,D][D,F,C][D,G,C][D,A,C] | [G,B,]6 z2 | %12
 [G,B,G]3 [G,DG] [G,B,G][G,DG][G,B,=F][K:bass]B,, | C,4 [C,G,]4 | %14
 [D,G,D]3 [D,A,D] [D,G,D][D,CD][D,B,D][D,A,C] | [G,,D,G,]6 z2 |] %16
V:3
 z2 G,2 G,,2 G,2 | x8 | z2 G,2 C,2[K:treble] G,2 | x8 | z2 D,2 D,,2 D,2 | x8 | %6
 z2 E,2[K:treble] z4[K:bass] | x8 | x8 | D,8 | x8 | x8 | x7[K:bass] x | x8 | x8 | x8 |] %16
V:4
 x8 | x8 | x8 | x8 | x8 | x8 | x8 | x6[K:bass] x2 | x8 | x8 | x8 | z E,D,B,, G,,2 z2 | x8 | x8 | %14
 x8 | x8 |] %16

